X:0
T:Lydian/Major (4-gap, fa/ti) Hexatonic Scales
M:4/4
L:1/8
K:DbLyd
"^D flat"  D2EF ABcd|dcBA FED2||\
K:AbLyd
"^A flat"  A2Bc efga|agfe cBA2||
K:EbLyd
"^E flat"  E2FG Bcde|edcB GFE2||\
K:BbLyd
"^B flat"  B2cd fgab|bagf dcB2||
K:FLyd
"^F"       F2GA cdef|fedc AGF2||\
K:C
"^C"       C2DE GABc|cBAG EDC2||
K:G
"^G"       G2AB defg|gfed BAG2||\
K:D
"^D"       D2EF ABcd|dcBA FED2||
K:A
"^A"       A2Bc efga|agfe cBA2||\
K:E
"^E"       E2FG Bcde|edcB GFE2|]


2.6. The Minor/Phrygian Hexatonic Mode
==== =================================

The MINOR/PHRYGIAN HEXATONIC mode has interval sequence mTT STT, or Acdefga
in A.  In sol-fa it's either the la-mode with ti omitted or the mi-mode with
fa omitted.

